X: 4706
T: Boys Of 25, The
R: reel
M: 4/4
K: Dmajor
d2 B|:=cAAF G2 AB|=cABG A2 dB|=cAAF G2 eg|1 f2 ec AddB:|2 f2 ec Adde||
~f3 g a2 ag|~f3 g afde|~f3 g ~a2 ge|fdec Adde|
~f3 g ~a3 g|effg afde|fgaf ~g2 ag|f2 ec Ad d2||

